src/lib/packages/icons/src/assets/filled/shopping-cart.svg

<svg width="24" height="24" viewBox="0 0 24 24" fill="none" xmlns="http://www.w3.org/2000/svg">
<path d="M9.021 22.25C8.332 22.25 7.76599 21.69 7.76599 21C7.76599 20.31 8.32099 19.75 9.01099 19.75H9.021C9.711 19.75 10.271 20.31 10.271 21C10.271 21.69 9.711 22.25 9.021 22.25ZM18.271 21C18.271 20.31 17.711 19.75 17.021 19.75H17.011C16.321 19.75 15.766 20.31 15.766 21C15.766 21.69 16.331 22.25 17.021 22.25C17.711 22.25 18.271 21.69 18.271 21ZM13.001 13.75C12.591 13.75 12.251 13.41 12.251 13C12.251 12.59 12.591 12.25 13.001 12.25H20.069C20.216 12.25 20.341 12.143 20.365 11.998L20.96 8.35899C21.19 7.12899 20.24 5.99899 19 5.99899H6.94104L6.73206 4.61301C6.53806 3.24301 5.39203 2.24899 4.00903 2.24899H3.74902C3.33502 2.24899 2.99902 2.58499 2.99902 2.99899C2.99902 3.41299 3.33502 3.74899 3.74902 3.74899H3.99902C4.62602 3.74899 5.15805 4.20999 5.24805 4.83099L6.74902 15.279C6.88902 16.269 7.729 16.999 8.729 16.999H16.999C19.099 16.999 19.689 15.959 19.949 14.539L20.02 14.104C20.02 14.104 20.085 13.749 19.748 13.749C19.434 13.75 13.001 13.75 13.001 13.75Z" fill="currentColor"/>
</svg>

<svg xmlns="http://www.w3.org/2000/svg" width="24" height="24" fill="none"><path fill="currentColor" d="M9.021 22.25c-.689 0-1.255-.56-1.255-1.25s.555-1.25 1.245-1.25h.01a1.25 1.25 0 0 1 0 2.5Zm9.25-1.25c0-.69-.56-1.25-1.25-1.25h-.01c-.69 0-1.245.56-1.245 1.25s.565 1.25 1.255 1.25 1.25-.56 1.25-1.25Zm-5.27-7.25c-.41 0-.75-.34-.75-.75s.34-.75.75-.75h7.068a.3.3 0 0 0 .296-.252l.595-3.639c.23-1.23-.72-2.36-1.96-2.36H6.941l-.209-1.386A2.73 2.73 0 0 0 4.01 2.249h-.26a.75.75 0 0 0 0 1.5H4c.627 0 1.16.461 1.249 1.082L6.75 15.279c.14.99.98 1.72 1.98 1.72H17c2.1 0 2.69-1.04 2.95-2.46l.071-.435s.065-.355-.272-.355l-6.747.001Z"/></svg>
